X: 1
T: Plane Tree, The
M: 6/8
L: 1/8
R: jig
K: Emin
|:EGB EGB|cBA B3|cde dcB|AGA B3|
EGB EGB|cBA B3|cde dcB|AGF E3:|
|:efg f3|ed/2c/2d B3|cde dcB|AGA B3|
efg f3|ed/2c/2d B3|cde dcB|AGF E3:|
